packages/kaspersky-hexa-ui-icons/src/iconsSVGs/24/UnknownNetworkDevice.svg

<svg width="24" height="24" viewBox="0 0 24 24" fill="none" xmlns="http://www.w3.org/2000/svg">
<path d="M10.8276 5.94727C10.8276 5.31104 11.3601 4.7749 12.0189 4.7749C12.657 4.7749 13.1724 5.29423 13.1724 5.90972V6.23301C13.1724 6.56374 12.9473 6.85203 12.6264 6.93225C11.6706 7.17121 11 8.03005 11 9.01532V9.7489C11 10.3012 11.4477 10.7489 12 10.7489C12.5523 10.7489 13 10.3012 13 9.7489V9.01532C13 8.94778 13.046 8.88891 13.1115 8.87254C14.3227 8.56974 15.1724 7.48148 15.1724 6.23301V5.90972C15.1724 4.16716 13.7389 2.7749 12.0189 2.7749C10.2782 2.7749 8.82764 4.18397 8.82764 5.94727C8.82764 6.49955 9.27535 6.94727 9.82764 6.94727C10.3799 6.94727 10.8276 6.49955 10.8276 5.94727Z" fill="black"/>
<path d="M12 13.5505C12.5999 13.5505 13.0862 13.0642 13.0862 12.4644C13.0862 11.8645 12.5999 11.3782 12 11.3782C11.4001 11.3782 10.9138 11.8645 10.9138 12.4644C10.9138 13.0642 11.4001 13.5505 12 13.5505Z" fill="black"/>
<path fill-rule="evenodd" clip-rule="evenodd" d="M9.17071 17C9.58254 15.8348 10.6938 15 12 15C13.3062 15 14.4175 15.8348 14.8293 17H20C20.5523 17 21 17.4477 21 18C21 18.5523 20.5523 19 20 19H14.8293C14.4175 20.1652 13.3062 21 12 21C10.6938 21 9.58254 20.1652 9.17071 19H4C3.44772 19 3 18.5523 3 18C3 17.4477 3.44772 17 4 17H9.17071ZM12 17C11.4477 17 11 17.4477 11 18C11 18.5523 11.4477 19 12 19C12.5523 19 13 18.5523 13 18C13 17.4477 12.5523 17 12 17Z" fill="black"/>
</svg>

<svg xmlns="http://www.w3.org/2000/svg" width="24" height="24" fill="none" viewBox="0 0 24 24"><path fill="#000" fill-rule="evenodd" d="M10.8276 5.9473c0-.6363.5325-1.1724 1.1913-1.1724.6381 0 1.1535.5193 1.1535 1.1348v.3233a.721.721 0 0 1-.546.6992A2.147 2.147 0 0 0 11 9.0153v.7336c0 .5523.4477 1 1 1s1-.4477 1-1v-.7336c0-.0675.046-.1264.1115-.1428 1.2112-.3028 2.0609-1.391 2.0609-2.6395v-.3233c0-1.7425-1.4335-3.1348-3.1535-3.1348-1.7407 0-3.1913 1.409-3.1913 3.1724 0 .5522.4478 1 1 1s1-.4478 1-1M12 13.5505c.5999 0 1.0862-.4863 1.0862-1.0861S12.5999 11.3782 12 11.3782s-1.0862.4863-1.0862 1.0862c0 .5998.4863 1.0861 1.0862 1.0861M12 15c-1.3062 0-2.4175.8348-2.8293 2H4c-.5523 0-1 .4477-1 1s.4477 1 1 1h5.1707c.4118 1.1652 1.5231 2 2.8293 2s2.4175-.8348 2.8293-2H20c.5523 0 1-.4477 1-1s-.4477-1-1-1h-5.1707c-.4118-1.1652-1.5231-2-2.8293-2m-1 3c0-.5523.4477-1 1-1s1 .4477 1 1-.4477 1-1 1-1-.4477-1-1"/></svg>
